X:1
T:Enkes Polska
C: transc S. Kirton from Avesta Spelmanslag's Web page
N:H\"alsingland
Q:1/4=100     %Tempo
M:3/4     %Meter
L:1/8   %ref note value
K:G
D |: G>A Bd ce |dg/f/ gd BG |e>d cB AG |F/G/A/F/ D3 D |
G3/2A/ Bd ce |dg/f/ gd BG |e3/2d/ cB AG |1 F/G/A/F/ G3 D :|2 F/G/A/F/ G4 ||
|:"4X" dB/d/ cA/c/ BG |B/A/G/F/ GD B,G, |B/c/d/B/ cA/c/ BG |B/A/G/F/ G4 :|
